public/images/footer/facebook.svg

<svg width="37" height="37" viewBox="0 0 37 37" fill="none" xmlns="http://www.w3.org/2000/svg">
<rect x="1" y="1" width="35" height="35" rx="17.5" stroke="white"/>
<path d="M19.6509 25.9304V19.403L22.2209 19.403L22.754 16.5H19.6509V15.4733C19.6509 14.7062 19.8014 14.1752 20.1466 13.8359C20.4917 13.4966 21.0316 13.3491 21.8105 13.3491C22.0076 13.3491 22.1891 13.3511 22.3501 13.355C22.5843 13.3607 22.7751 13.3705 22.908 13.3845V10.7529C22.8549 10.7381 22.7922 10.7234 22.722 10.7088C22.5629 10.6759 22.3651 10.6442 22.1524 10.6164C21.7081 10.5582 21.199 10.5168 20.8428 10.5168C19.4044 10.5168 18.3173 10.8246 17.5585 11.462C16.6427 12.2313 16.205 13.4808 16.205 15.2491V16.5H14.246V19.403H16.205V25.7202C16.5567 25.9304 18.8958 26 19.6509 25.9304Z" fill="white"/>
</svg>

<svg xmlns="http://www.w3.org/2000/svg" width="37" height="37" fill="none"><rect width="35" height="35" x="1" y="1" stroke="#fff" rx="17.5"/><path fill="#fff" d="M19.65 25.93v-6.527h2.57l.534-2.903h-3.103v-1.027c0-.767.15-1.298.496-1.637.345-.34.885-.487 1.664-.487q.296 0 .54.006c.233.006.424.015.557.03v-2.632a3 3 0 0 0-.186-.044 11.176 11.176 0 0 0-1.88-.192c-1.438 0-2.525.308-3.284.945-.915.77-1.353 2.019-1.353 3.787V16.5h-1.959v2.903h1.959v6.317c.352.21 2.69.28 3.446.21"/></svg>
